pix_core/f/math.svg

<svg fill="none" preserveAspectRatio="xMinYMid meet" viewBox="0 0 24 24" xmlns="http://www.w3.org/2000/svg"><g fill="#fff"><path d="m7.50892 14.9064c.51828-2.7209 2.82598-3.4064 3.91978-3.4064h4.5714c.2761 0 .5.2239.5.5s-.2239.5-.5.5h-1.5001v3.5c0 .7021.3305 1.2855.7777 1.5842.2296.1534.2915.4638.1381.6935-.1534.2296-.4638.2915-.6935.1381-.7484-.4998-1.2223-1.4087-1.2223-2.4158v-3.5h-1.9453c.101 1.3918-.0032 3.8861-1.1259 5.7573-.1421.2368-.44918.3135-.68597.1715-.23679-.1421-.31357-.4492-.1715-.686.94557-1.5759 1.07697-3.7644.99137-5.0929-.82354.2709-1.78838.9576-2.07144 2.4437-.05167.2712-.31346.4492-.58472.3976-.27127-.0517-.44929-.3135-.39762-.5848z"/><path clip-rule="evenodd" d="m19.5 19c0 1.3807-1.1193 2.5-2.5 2.5h-10c-1.38071 0-2.5-1.1193-2.5-2.5v-14c0-1.38071 1.11929-2.5 2.5-2.5h6.1716c.663 0 1.2989.26339 1.7677.73223l3.8285 3.82843c.4688.46884.7322 1.10473.7322 1.76777zm-14-14c0-.82843.67157-1.5 1.5-1.5h6c.2761 0 .5.22386.5.5v3c0 .82843.6716 1.5 1.5 1.5h3c.2761 0 .5.22386.5.5v10c0 .8284-.6716 1.5-1.5 1.5h-10c-.82843 0-1.5-.6716-1.5-1.5zm9-.79289 3.2929 3.29289h-2.7929c-.2761 0-.5-.22386-.5-.5z" fill-rule="evenodd"/></g></svg>

<svg viewBox="0 0 24 24" fill="none" xmlns="http://www.w3.org/2000/svg" preserveAspectRatio="xMinYMid meet">
<path d="M7.50892 14.9064C8.0272 12.1855 10.3349 11.5 11.4287 11.5L16.0001 11.5C16.2762 11.5 16.5001 11.7239 16.5001 12C16.5001 12.2761 16.2762 12.5 16.0001 12.5H14.5V16C14.5 16.7021 14.8305 17.2855 15.2777 17.5842C15.5073 17.7376 15.5692 18.048 15.4158 18.2777C15.2624 18.5073 14.952 18.5692 14.7223 18.4158C13.9739 17.916 13.5 17.0071 13.5 16V12.5H11.5547C11.6557 13.8918 11.5515 16.3861 10.4288 18.2573C10.2867 18.4941 9.97962 18.5708 9.74283 18.4288C9.50604 18.2867 9.42926 17.9796 9.57133 17.7428C10.5169 16.1669 10.6483 13.9784 10.5627 12.6499C9.73916 12.9208 8.77432 13.6075 8.49126 15.0936C8.43959 15.3648 8.1778 15.5428 7.90654 15.4912C7.63527 15.4395 7.45725 15.1777 7.50892 14.9064Z" fill="#fff"/>
<path fill-rule="evenodd" clip-rule="evenodd" d="M19.5 19C19.5 20.3807 18.3807 21.5 17 21.5H7C5.61929 21.5 4.5 20.3807 4.5 19V5C4.5 3.61929 5.61929 2.5 7 2.5H13.1716C13.8346 2.5 14.4705 2.76339 14.9393 3.23223L18.7678 7.06066C19.2366 7.5295 19.5 8.16539 19.5 8.82843V19ZM5.5 5C5.5 4.17157 6.17157 3.5 7 3.5H13C13.2761 3.5 13.5 3.72386 13.5 4V7C13.5 7.82843 14.1716 8.5 15 8.5H18C18.2761 8.5 18.5 8.72386 18.5 9V19C18.5 19.8284 17.8284 20.5 17 20.5H7C6.17157 20.5 5.5 19.8284 5.5 19V5ZM14.5 4.20711L17.7929 7.5H15C14.7239 7.5 14.5 7.27614 14.5 7V4.20711Z" fill="#fff"/>
</svg>
